fs/whiteboard_20_regular.svg

<svg viewBox="0 0 20 20" fill="none" xmlns="http://www.w3.org/2000/svg" height="1em" width="1em">
  <path d="M17.3314 3.46118L17.4411 3.56329L17.5425 3.67353C18.1849 4.42823 18.1507 5.5651 17.4402 6.27912L13.8367 9.89642C13.6153 10.1186 13.3427 10.2823 13.0431 10.3727L11.0838 10.964C10.6385 11.0984 10.1692 10.8444 10.0355 10.3967C9.98651 10.2325 9.98825 10.0571 10.0405 9.89393L10.6625 7.95152C10.7548 7.66332 10.9141 7.4014 11.1272 7.18748L14.739 3.56174C15.4501 2.84784 16.5811 2.81448 17.3314 3.46118ZM15.4474 4.26748L11.8357 7.89321C11.7348 7.99451 11.6589 8.11898 11.6149 8.25649L11.0822 9.91996L12.7541 9.41534C12.8948 9.37287 13.0234 9.29586 13.1282 9.19067L16.7314 5.57374C17.068 5.23542 17.0886 4.69573 16.7912 4.33385L16.7313 4.26874L16.6666 4.20847C16.3105 3.91222 15.7821 3.93151 15.4474 4.26748ZM12.8909 4H5C3.34315 4 2 5.34315 2 7V13C2 14.6569 3.34315 16 5 16H15C16.6569 16 18 14.6569 18 13V7.13407L17 8.1379V13C17 14.1046 16.1046 15 15 15H5C3.89543 15 3 14.1046 3 13V9.23059C3.57333 8.74353 4.33932 8.11963 5.07449 7.69458C5.48323 7.45827 5.84583 7.30547 6.13608 7.25611C6.41716 7.20831 6.5585 7.2656 6.64645 7.35356C6.72095 7.42805 6.74392 7.488 6.75198 7.53881C6.76137 7.59799 6.75618 7.68539 6.7124 7.81467C6.61887 8.09086 6.40207 8.41742 6.10999 8.82589L6.01624 8.9565C5.76427 9.30687 5.47846 9.70429 5.27961 10.101C5.05535 10.5483 4.88822 11.0958 5.07567 11.6581C5.24512 12.1665 5.5738 12.5031 6.00189 12.6693C6.4041 12.8254 6.84556 12.8127 7.23841 12.7421C8.0232 12.6012 8.8224 12.1897 9.25726 11.9288C9.49405 11.7867 9.57083 11.4796 9.42875 11.2428C9.28668 11.006 8.97955 10.9292 8.74276 11.0713C8.34429 11.3104 7.66848 11.6489 7.0616 11.7579C6.75863 11.8123 6.52509 11.7997 6.36375 11.737C6.2283 11.6844 6.1049 11.5835 6.02435 11.3419C5.9618 11.1542 5.99399 10.9073 6.17356 10.5491C6.33421 10.2286 6.57002 9.9001 6.82956 9.53849L6.92343 9.40754C7.19941 9.02158 7.51039 8.57592 7.65956 8.13543C7.73713 7.90637 7.78203 7.64932 7.73962 7.3821C7.69589 7.1065 7.5652 6.85809 7.35356 6.64645C6.95714 6.25003 6.43964 6.19013 5.96843 6.27026C5.5064 6.34883 5.02331 6.56908 4.57397 6.82886C4.02816 7.14442 3.47803 7.55093 3 7.93304V7C3 5.89543 3.89543 5 5 5H11.8947L12.8909 4Z" fill="#212121"/>
</svg>

<svg viewBox="0 0 20 20" fill="none" xmlns="http://www.w3.org/2000/svg" height="1em" width="1em">
  <path d="m17.331 3.461.11.102.102.11a1.928 1.928 0 0 1-.103 2.606l-3.603 3.617a1.892 1.892 0 0 1-.794.477l-1.96.591a.841.841 0 0 1-1.047-.567.851.851 0 0 1 .005-.503l.621-1.942c.093-.289.252-.55.465-.765l3.612-3.625a1.904 1.904 0 0 1 2.592-.1Zm-1.884.806-3.611 3.626a.906.906 0 0 0-.221.363l-.533 1.664 1.672-.505c.14-.042.27-.12.374-.224l3.603-3.617a.929.929 0 0 0 .06-1.24l-.06-.065-.064-.06a.904.904 0 0 0-1.22.058ZM12.891 4H5a3 3 0 0 0-3 3v6a3 3 0 0 0 3 3h10a3 3 0 0 0 3-3V7.134l-1 1.004V13a2 2 0 0 1-2 2H5a2 2 0 0 1-2-2V9.23c.573-.486 1.34-1.11 2.074-1.535.41-.237.772-.39 1.062-.439.281-.048.423.01.51.098a.327.327 0 0 1 .106.185.59.59 0 0 1-.04.276c-.093.276-.31.602-.602 1.01l-.094.132c-.252.35-.538.747-.736 1.144-.225.447-.392.995-.204 1.557.17.508.498.845.926 1.011.402.156.844.144 1.236.073.785-.14 1.584-.552 2.02-.813a.5.5 0 0 0-.515-.858c-.399.24-1.075.578-1.681.687-.303.054-.537.042-.698-.021-.136-.053-.26-.153-.34-.395-.062-.188-.03-.435.15-.793.16-.32.396-.649.656-1.01l.093-.131c.276-.386.587-.832.737-1.273.077-.229.122-.486.08-.753a1.323 1.323 0 0 0-.386-.736c-.397-.396-.914-.456-1.386-.376-.462.079-.945.3-1.394.559-.546.315-1.096.722-1.574 1.104V7a2 2 0 0 1 2-2h6.895l.996-1Z" fill="#212121"/>
</svg>
